X: 367
U:~=!turn!
M:2/4
L:1/16
K:A
ed | c2BA AA cA | ceAf eAcA | =g2de d=GBG | Bd=GB =g2BG | c2BA AA cA | ceAf eAcA |
=g2fe d=GBG | Bd=GB =g2BG | c2Bc d2cd | edef eAcA | Bd=Gd =g2BG | {/d}c2A2 A4 |]


